X:114
T:Au saint Nau
R:Chanson
O:France
B:Le livre des Chansons (Henri Davenson) n114
Z:<anamnese@laposte.net> -- http://anamnese.fr.st
M:2/4
L:1/8
Q:1/4=135
K:F
F2 E2 | D4 | D E F G | A3 B | A2 G2 | F E F G | A3 B | A2 G2 |
A G F E | D ^C D2 | F2 G2 | A4 | A G F E | D2 ^C2 | !fine! D4 ||
D D F F | G G A2 | d2 HA2 | A G F F | G A (FE) | E4 | 
D D F F | G G A2 | d2 HA2 | A G F F | G A (FE) | E4 | 
F2 E2 | D2 | D E F G | A3 B | A2 G2 | F E F G | A3 B | 
A2 G2 | A G F E | D ^C D2 | F2 G2 | A4 | A G F E | D2 ^C2 |!D.C.! D4 ||
W:Au saint Nau chanterai sans point m'y feindre, Y n'en daignerai ren craindre,
W:Car le jour est friau, nau, nau, nau, Car le jour est friau.
W:
W:Nous fmes en grand moi nau, nau, y ne sait pas ce qu'o peut estre,
W:Deux autres bergers et moi, Nau, nau, En menant nos brebis patre,
W:Dau forfait qu'Adam fit contre son matre, quand dau fruit il osit patre 
W:Dont il fit pch mortiau, Nau, Nau, Nau, Dont il fit pch mortiau
